X: 235
T: Hence They Come
C: Teton Sioux band 1911-1914
N: Derived from sioux230.krn
O: South Dakota, U.S.A.
N: Teton Sioux Music by Frances Densmore, 1918
Z: transcribed to **kern format by Craig Sapp
L: 1/8
M: 3/4
Q: 1/4=58
K: D clef=treble
%%linebreak <none>
A2A A/ F/ E E [I:setbarnb 2]| 
A< F (3F A FE2 | 
D D D B, B, B, | 
B,6 | 
D< D D< D B,/ z/ E ||  
[M:2/4]E< D B, B, | 
B,< B, B, B, | 
B,4 | 
B,4 | 
B,< A A A ||  
[M:3/4](3:2:1A A (3:2:1F/E2E E | 
A< F (3:2:1F A (3:2:1F/E2 | 
D< D D< B, B,3/ B,/ | 
B,6 | 
D< D D< D B,/ z/ E ||  
[M:2/4]E< D B, B, | 
B,< B, B, B, | 
B,4 | 
B,4 |]  



